website/media/images/svg/letter.svg

<svg width="200" height="200" viewBox="0 0 200 200" fill="none" xmlns="http://www.w3.org/2000/svg">
<g clip-path="url(#clip0)">
<path d="M174.397 56.3056L117.152 16.6786C106.833 9.53486 93.1654 9.53486 82.8455 16.6786L25.6009 56.3056C17.4693 61.9345 12.6169 71.195 12.6169 81.0849V166.933C12.6169 183.577 26.1099 197.07 42.7544 197.07H157.244C173.888 197.07 187.381 183.577 187.381 166.933V81.0849C187.381 71.195 182.529 61.9345 174.397 56.3056Z" fill="#FFE07D"/>
<path d="M30.9101 81.0835V166.935C30.9101 183.579 44.4011 197.07 61.0456 197.07H42.7546C26.1097 197.07 12.6147 183.579 12.6147 166.935V81.0835C12.6147 71.1968 17.4694 61.9335 25.6003 56.3038L82.844 16.6773C90.6589 11.271 100.394 9.95695 109.144 12.7402C106.344 13.6327 103.641 14.9464 101.139 16.6773L43.8913 56.3038C35.7604 61.9335 30.9101 71.1968 30.9101 81.0835Z" fill="#FFD064"/>
<path d="M187.376 80.5195H187.372C187.195 90.1957 182.374 99.2105 174.399 104.731L167.236 109.687L117.151 144.357C106.835 151.503 93.1667 151.503 82.8463 144.357L34.4577 110.861L25.6026 104.731C17.6233 99.2105 12.8022 90.1957 12.6252 80.5195C12.8022 70.8477 17.6276 61.8285 25.6026 56.3039L34.4577 50.173L82.8463 16.6773C93.1667 9.53594 106.834 9.53594 117.155 16.6773L167.236 51.3477L174.399 56.3035C182.374 61.8285 187.199 70.8477 187.376 80.5195Z" fill="#FFD064"/>
<path d="M167.236 40.2656V109.686L117.151 144.357C106.835 151.502 93.1667 151.502 82.8464 144.357L34.4578 110.861V16.4164C34.4578 8.96797 40.4957 2.92969 47.9402 2.92969H129.9L167.236 40.2656Z" fill="#F9F6F9"/>
<path d="M167.236 92.0437V109.686L117.151 144.357C106.835 151.502 93.1667 151.502 82.8464 144.357L34.4578 110.861V93.2187L82.8468 126.714C93.1671 133.86 106.835 133.86 117.151 126.714L167.236 92.0437Z" fill="#DDDAEC"/>
<path d="M167.237 40.2672H143.384C135.939 40.2672 129.902 34.2301 129.902 26.7844V2.93164" fill="#DDDAEC"/>
<path d="M140.683 62.8683C142.227 59.757 140.956 55.9859 137.844 54.4421L128.108 49.6195C124.997 48.0757 121.226 49.3472 119.682 52.4585L100.416 91.3304L91.0341 75.6394C89.2513 72.657 85.3942 71.6867 82.4118 73.4695L73.0868 79.0425C70.1091 80.8253 69.1341 84.6824 70.9169 87.6648L89.404 118.588C90.5845 120.562 92.7497 121.738 95.0438 121.647L108.149 121.131C110.448 121.041 112.513 119.702 113.531 117.642L140.683 62.8683Z" fill="#CCF49F"/>
<path d="M105.315 99.5249L128.643 52.4585C129.005 51.7281 129.494 51.1035 130.064 50.5886L128.108 49.6195C124.996 48.0757 121.225 49.3472 119.681 52.4585L100.415 91.3304L105.315 99.5249Z" fill="#B3E59F"/>
<path d="M98.3647 118.588L79.8776 87.6643C78.0948 84.6819 79.0698 80.8249 82.0476 79.042L89.9643 74.3104C87.9702 72.4127 84.8905 71.987 82.4108 73.469L73.0858 79.042C70.1081 80.8249 69.1331 84.6819 70.9159 87.6643L89.403 118.588C90.5835 120.562 92.7487 121.737 95.0429 121.647L101.92 121.376C100.455 120.926 99.1768 119.946 98.3647 118.588Z" fill="#B3E59F"/>
<path d="M176.064 53.8961L170.166 49.8129V40.2656C170.166 39.4887 169.857 38.7434 169.308 38.1941L131.973 0.858203C131.423 0.308594 130.678 0 129.901 0H47.9445C38.8922 0 31.5281 7.36445 31.5281 16.4164V48.6414L23.9359 53.8961C15.1563 59.973 9.86211 69.9156 9.69687 80.5734H9.69609C9.69609 80.5801 9.69648 80.5871 9.69687 80.5938C9.69453 80.7578 9.68945 80.9219 9.68945 81.0863V166.934C9.68945 185.167 24.523 200 42.7559 200H46.9668C48.5852 200 49.8965 198.689 49.8965 197.071C49.8965 195.453 48.5852 194.141 46.9668 194.141H42.7559C27.7539 194.141 15.5488 181.936 15.5488 166.934V98.7301C17.7887 101.979 20.6148 104.842 23.9355 107.139L81.1785 146.766C86.8086 150.664 93.4039 152.612 100 152.612C106.596 152.612 113.192 150.663 118.818 146.766L176.066 107.139C179.387 104.841 182.212 101.977 184.452 98.7277V166.934C184.452 181.936 172.246 194.141 157.245 194.141H58.6859C57.0676 194.141 55.7562 195.452 55.7562 197.07C55.7562 198.688 57.0676 200 58.6859 200H157.245C175.478 200 190.311 185.166 190.311 166.934V81.0859C190.311 70.2344 184.985 60.0699 176.064 53.8961ZM132.831 10.0031L160.165 37.3371H143.384C137.566 37.3371 132.831 32.6031 132.831 26.784V10.0031ZM15.557 80.5355C15.7332 71.8148 20.0816 63.6895 27.2707 58.7137L31.5277 55.7672V105.269L27.2691 102.321C20.1129 97.3703 15.7387 89.2301 15.557 80.5355ZM115.483 141.949C106.223 148.363 93.7785 148.363 84.5141 141.948L37.3875 109.325V16.4164C37.3875 10.5953 42.1234 5.85938 47.9445 5.85938H126.972V26.784C126.972 35.834 134.334 43.1965 143.384 43.1965H164.307V108.153L115.483 141.949ZM172.731 102.321L170.166 104.097V56.9395L172.729 58.7137C179.904 63.6785 184.249 71.7805 184.442 80.4809C184.278 89.1953 179.901 97.359 172.731 102.321Z" fill="black"/>
<path d="M85.5043 158.189C84.8421 156.713 83.1082 156.052 81.6324 156.714L32.9046 178.558C31.4285 179.22 30.7679 180.953 31.43 182.43C31.9175 183.517 32.9859 184.162 34.105 184.162C34.5054 184.162 34.9128 184.079 35.3019 183.905L84.0293 162.061C85.5058 161.4 86.166 159.666 85.5043 158.189Z" fill="black"/>
<path d="M164.695 183.905C165.085 184.079 165.491 184.162 165.892 184.162C167.011 184.162 168.08 183.517 168.567 182.43C169.229 180.953 168.569 179.22 167.093 178.558L118.365 156.714C116.889 156.053 115.155 156.712 114.493 158.189C113.832 159.666 114.492 161.399 115.968 162.061L164.695 183.905Z" fill="black"/>
<path d="M143.784 57.1317C142.998 54.7977 141.35 52.9102 139.142 51.8161L129.412 46.9981C127.207 45.9012 124.707 45.7297 122.372 46.5168C120.039 47.3028 118.151 48.95 117.057 51.1563L100.175 85.2207L93.5491 74.1395C92.2866 72.0239 90.2757 70.5278 87.8878 69.9266C85.5022 69.3262 83.0233 69.6911 80.9093 70.9543L71.5854 76.5286C67.2233 79.1356 65.7948 84.8055 68.4019 89.1676L86.8893 120.088C88.5581 122.884 91.5644 124.583 94.7999 124.583C94.9202 124.583 95.0409 124.581 95.1616 124.576L108.266 124.057C111.643 123.925 114.668 121.962 116.155 118.943L129.913 91.1926C130.632 89.743 130.039 87.9852 128.589 87.2664C127.139 86.5477 125.382 87.1403 124.663 88.5899L110.901 116.347C110.362 117.443 109.264 118.154 108.035 118.202L94.9311 118.722C93.7003 118.768 92.5515 118.143 91.9194 117.084L73.4315 86.1621C72.4819 84.5735 73.0022 82.5082 74.5921 81.5586L83.9159 75.9844C84.6866 75.5239 85.5886 75.3911 86.4581 75.6094C87.3268 75.8282 88.0585 76.3727 88.5194 77.145L97.9026 92.8364C98.4526 93.7563 99.4522 94.3024 100.532 94.2602C101.603 94.218 102.566 93.5942 103.042 92.6336L122.306 53.7602C122.705 52.9567 123.393 52.3567 124.243 52.07C125.092 51.7844 126.001 51.8457 126.808 52.2473L136.541 57.0672C137.345 57.4657 137.946 58.1528 138.232 59.0028C138.518 59.8524 138.456 60.7625 138.057 61.5672L129.866 78.0891C129.147 79.5383 129.739 81.2965 131.189 82.0157C132.637 82.7352 134.396 82.143 135.115 80.6934L143.307 64.17C144.4 61.9641 144.57 59.4645 143.784 57.1317Z" fill="black"/>
</g>
<defs>
<clipPath id="clip0">
<rect width="200" height="200" fill="white"/>
</clipPath>
</defs>
</svg>

<svg width="200" height="200" viewBox="0 0 200 200" fill="none" xmlns="http://www.w3.org/2000/svg"><g clip-path="url(#clip0)"><path d="M174.397 56.306l-57.245-39.627a30.137 30.137 0 00-34.306 0L25.6 56.306a30.137 30.137 0 00-12.984 24.779v85.848c0 16.644 13.493 30.137 30.137 30.137h114.49c16.644 0 30.137-13.493 30.137-30.137V81.085c0-9.89-4.852-19.15-12.984-24.78z" fill="#FFE07D"/><path d="M30.91 81.084v85.851c0 16.644 13.491 30.135 30.136 30.135H42.755c-16.645 0-30.14-13.491-30.14-30.135V81.083c0-9.886 4.854-19.15 12.985-24.78l57.244-39.626a30.159 30.159 0 0126.3-3.937 30.176 30.176 0 00-8.005 3.937L43.891 56.304a30.142 30.142 0 00-12.98 24.78z" fill="#FFD064"/><path d="M187.376 80.52h-.004a30.12 30.12 0 01-12.973 24.211l-7.163 4.956-50.085 34.67a30.127 30.127 0 01-34.305 0l-48.388-33.496-8.855-6.13a30.112 30.112 0 01-12.978-24.212 30.143 30.143 0 0112.978-24.215l8.855-6.131 48.388-33.496a30.15 30.15 0 0134.309 0l50.081 34.67 7.163 4.956a30.144 30.144 0 0112.977 24.216z" fill="#FFD064"/><path d="M167.236 40.266v69.42l-50.085 34.671a30.13 30.13 0 01-34.305 0l-48.388-33.496V16.416c0-7.448 6.038-13.486 13.482-13.486h81.96l37.336 37.336z" fill="#F9F6F9"/><path d="M167.236 92.044v17.642l-50.085 34.671a30.13 30.13 0 01-34.305 0l-48.388-33.496V93.219l48.389 33.495a30.126 30.126 0 0034.304 0l50.085-34.67zm.001-51.777h-23.853c-7.445 0-13.482-6.037-13.482-13.483V2.932" fill="#DDDAEC"/><path d="M140.683 62.868a6.285 6.285 0 00-2.839-8.426l-9.736-4.822a6.286 6.286 0 00-8.426 2.839L100.416 91.33l-9.382-15.69a6.284 6.284 0 00-8.622-2.17l-9.325 5.573a6.288 6.288 0 00-2.17 8.622l18.487 30.923a6.289 6.289 0 005.64 3.059l13.105-.516a6.276 6.276 0 005.382-3.489l27.152-54.774z" fill="#CCF49F"/><path d="M105.315 99.525l23.328-47.067a6.266 6.266 0 011.421-1.87l-1.956-.968a6.287 6.287 0 00-8.427 2.839L100.415 91.33l4.9 8.195zm-6.95 19.063L79.878 87.664a6.288 6.288 0 012.17-8.622l7.916-4.732a6.281 6.281 0 00-7.553-.841l-9.325 5.573a6.288 6.288 0 00-2.17 8.622l18.487 30.924a6.29 6.29 0 005.64 3.059l6.877-.271a6.299 6.299 0 01-3.555-2.788z" fill="#B3E59F"/><path d="M176.064 53.896l-5.898-4.083v-9.547c0-.777-.309-1.523-.858-2.072L131.973.858A2.931 2.931 0 00129.901 0H47.944c-9.052 0-16.416 7.364-16.416 16.416v32.225l-7.592 5.255a33.07 33.07 0 00-14.24 26.677v.02c-.001.165-.007.329-.007.493v85.848C9.69 185.167 24.523 200 42.756 200h4.21a2.929 2.929 0 100-5.859h-4.21c-15.002 0-27.207-12.205-27.207-27.207V98.73a32.976 32.976 0 008.387 8.409l57.242 39.627c5.63 3.898 12.226 5.846 18.822 5.846 6.596 0 13.192-1.949 18.818-5.846l57.248-39.627a32.989 32.989 0 008.386-8.411v68.206c0 15.002-12.206 27.207-27.207 27.207h-98.56a2.929 2.929 0 100 5.859h98.56c18.233 0 33.066-14.834 33.066-33.066V81.086a33.07 33.07 0 00-14.247-27.19zm-43.233-43.893l27.334 27.334h-16.781c-5.818 0-10.553-4.734-10.553-10.553v-16.78zM15.557 80.535a27.21 27.21 0 0111.714-21.821l4.257-2.947v49.502l-4.259-2.948a27.246 27.246 0 01-11.712-21.785zm99.926 61.414c-9.26 6.414-21.705 6.414-30.969-.001l-47.126-32.623V16.416c0-5.82 4.735-10.557 10.556-10.557h79.028v20.925c0 9.05 7.362 16.413 16.412 16.413h20.923v64.956l-48.824 33.796zm57.248-39.628l-2.565 1.776V56.94l2.563 1.774a27.205 27.205 0 0111.713 21.767 27.248 27.248 0 01-11.711 21.84z" fill="#000"/><path d="M85.504 158.189a2.93 2.93 0 00-3.872-1.475l-48.727 21.844a2.93 2.93 0 002.397 5.347l48.727-21.844a2.93 2.93 0 001.475-3.872zm79.191 25.716a2.93 2.93 0 102.398-5.347l-48.728-21.844a2.93 2.93 0 00-2.397 5.347l48.727 21.844zM143.784 57.132a9.153 9.153 0 00-4.642-5.316l-9.73-4.818a9.143 9.143 0 00-7.04-.481 9.156 9.156 0 00-5.315 4.64L100.175 85.22l-6.626-11.082a9.152 9.152 0 00-5.661-4.212 9.16 9.16 0 00-6.979 1.027l-9.324 5.575c-4.362 2.607-5.79 8.276-3.183 12.639l18.487 30.92a9.21 9.21 0 008.273 4.488l13.104-.519a9.186 9.186 0 007.889-5.114l13.758-27.75a2.93 2.93 0 10-5.25-2.603l-13.762 27.757a3.332 3.332 0 01-2.866 1.855l-13.104.52a3.353 3.353 0 01-3.012-1.638L73.432 86.162a3.36 3.36 0 011.16-4.603l9.324-5.575a3.337 3.337 0 012.542-.375c.869.22 1.6.764 2.061 1.536l9.384 15.691a2.93 2.93 0 005.14-.203l19.263-38.873a3.34 3.34 0 011.937-1.69 3.33 3.33 0 012.565.177l9.733 4.82a3.333 3.333 0 011.691 1.936c.286.85.224 1.76-.175 2.564l-8.191 16.522a2.93 2.93 0 005.249 2.604l8.192-16.523a9.161 9.161 0 00.477-7.038z" fill="#000"/></g><defs><clipPath id="clip0"><path fill="#fff" d="M0 0h200v200H0z"/></clipPath></defs></svg>
